sedo-logistics/public/Home.svg

<svg width="48" height="48" viewBox="0 0 48 48" fill="none" xmlns="http://www.w3.org/2000/svg">
<g clip-path="url(#clip0_548_156)">
<path d="M42 48H28V35H20V48H6V27C6 26.448 6.447 26 7 26C7.553 26 8 26.448 8 27V46H18V33H30V46H40V28C40 27.448 40.447 27 41 27C41.553 27 42 27.448 42 28V48Z" fill="#004661" fill-opacity="0.59"/>
<path d="M46.9998 27.0002C46.7508 27.0002 46.5028 26.9082 46.3088 26.7232L23.9998 5.38421L1.69077 26.7232C1.29177 27.1042 0.658766 27.0912 0.276766 26.6922C-0.105234 26.2932 -0.090234 25.6602 0.307766 25.2782L23.9998 2.61621L47.6908 25.2772C48.0888 25.6592 48.1038 26.2922 47.7218 26.6912C47.5258 26.8962 47.2638 27.0002 46.9998 27.0002Z" fill="#004661" fill-opacity="0.59"/>
<path d="M39 15C38.447 15 38 14.552 38 14V8H32C31.447 8 31 7.552 31 7C31 6.448 31.447 6 32 6H40V14C40 14.552 39.553 15 39 15Z" fill="#004661" fill-opacity="0.59"/>
</g>
<defs>
<clipPath id="clip0_548_156">
<rect width="48" height="48" fill="white"/>
</clipPath>
</defs>
</svg>

<?xml version="1.0" ?><!DOCTYPE svg  PUBLIC '-//W3C//DTD SVG 1.1//EN'  'http://www.w3.org/Graphics/SVG/1.1/DTD/svg11.dtd'><svg enable-background="new 0 0 48 48" height="48px" version="1.1" viewBox="0 0 48 48" width="48px" xml:space="preserve" xmlns="http://www.w3.org/2000/svg" xmlns:xlink="http://www.w3.org/1999/xlink"><g id="Expanded"><g><g><path d="M42,48H28V35h-8v13H6V27c0-0.552,0.447-1,1-1s1,0.448,1,1v19h10V33h12v13h10V28c0-0.552,0.447-1,1-1s1,0.448,1,1V48z"/></g><g><path d="M47,27c-0.249,0-0.497-0.092-0.691-0.277L24,5.384L1.691,26.723c-0.399,0.381-1.032,0.368-1.414-0.031     c-0.382-0.399-0.367-1.032,0.031-1.414L24,2.616l23.691,22.661c0.398,0.382,0.413,1.015,0.031,1.414     C47.526,26.896,47.264,27,47,27z"/></g><g><path d="M39,15c-0.553,0-1-0.448-1-1V8h-6c-0.553,0-1-0.448-1-1s0.447-1,1-1h8v8C40,14.552,39.553,15,39,15z"/></g></g></g></svg>
